build/assets/img/icons/franchise.svg

<svg height="128" viewBox="0 0 128 128" width="128" xmlns="http://www.w3.org/2000/svg"><path d="m19.5 98.5h14v25h-14z" fill="#78909c"/><path d="m35 125h-17v-28h17zm-14-3h11v-22h-11z" fill="#37474f"/><path d="m95.5 98.5h13v25h-13z" fill="#78909c"/><path d="m110 125h-16v-28h16zm-13-3h10v-22h-10z" fill="#37474f"/><path d="m13.5 5.5h101v110h-101z" fill="#fff"/><path d="m116 117h-104v-113h104zm-101-3h98v-107h-98z" fill="#37474f"/><path d="m33.5 17.5h61v24h-61z" fill="#ffab00"/><path d="m94.5 43h-61c-.8 0-1.5-.7-1.5-1.5v-24c0-.8.7-1.5 1.5-1.5h61c.8 0 1.5.7 1.5 1.5v24c0 .8-.7 1.5-1.5 1.5zm-59.5-3h58v-21h-58z" fill="#37474f"/><g fill="#37474f"><path d="m55.6 29.8c0 .8-.6 1.4-1.4 1.4s-1.5-.6-1.5-1.4.7-1.5 1.5-1.5c.7 0 1.4.7 1.4 1.5z"/><path d="m54.1 31.7c-1.1 0-2-.9-2-1.9 0-1.1.9-2 2-2s1.9.9 1.9 2c.1 1.1-.8 1.9-1.9 1.9zm0-2.9c-.6 0-1 .4-1 1 0 .5.4.9 1 .9.5 0 .9-.4.9-.9.1-.5-.3-1-.9-1zm11.7 1c0 .8-.7 1.4-1.5 1.4s-1.5-.6-1.5-1.4.7-1.5 1.5-1.5 1.5.7 1.5 1.5z"/><path d="m64.3 31.7c-1.1 0-2-.9-2-1.9 0-1.1.9-2 2-2s2 .9 2 2-.9 1.9-2 1.9zm0-2.9c-.5 0-1 .4-1 1 0 .5.4.9 1 .9s1-.4 1-.9-.5-1-1-1z"/><path d="m75.9 29.8c0 .8-.6 1.4-1.4 1.4s-1.5-.6-1.5-1.4.6-1.5 1.5-1.5c.8 0 1.4.7 1.4 1.5z"/><path d="m74.5 31.7c-1.1 0-2-.9-2-1.9 0-1.1.9-2 2-2s1.9.9 1.9 2-.8 1.9-1.9 1.9zm0-2.9c-.5 0-1 .4-1 1 0 .5.4.9 1 .9.5 0 .9-.4.9-.9s-.4-1-.9-1z"/></g><path d="m33.5 49.5h61v24h-61z" fill="#ffab00"/><path d="m94.5 75h-61c-.8 0-1.5-.7-1.5-1.5v-24c0-.8.7-1.5 1.5-1.5h61c.8 0 1.5.7 1.5 1.5v24c0 .8-.7 1.5-1.5 1.5zm-59.5-3h58v-21h-58z" fill="#37474f"/><g fill="#37474f"><path d="m55.6 61.8c0 .8-.6 1.4-1.4 1.4s-1.5-.6-1.5-1.4.7-1.5 1.5-1.5c.7 0 1.4.6 1.4 1.5z"/><path d="m54.1 63.7c-1.1 0-2-.9-2-1.9 0-1.1.9-2 2-2s1.9.9 1.9 2c.1 1-.8 1.9-1.9 1.9zm0-2.9c-.6 0-1 .4-1 1 0 .5.4.9 1 .9.5 0 .9-.4.9-.9.1-.6-.3-1-.9-1zm11.7 1c0 .8-.7 1.4-1.5 1.4s-1.5-.6-1.5-1.4.7-1.5 1.5-1.5 1.5.6 1.5 1.5z"/><path d="m64.3 63.7c-1.1 0-2-.9-2-1.9 0-1.1.9-2 2-2s2 .9 2 2c0 1-.9 1.9-2 1.9zm0-2.9c-.5 0-1 .4-1 1 0 .5.4.9 1 .9s1-.4 1-.9c0-.6-.5-1-1-1z"/><path d="m75.9 61.8c0 .8-.6 1.4-1.4 1.4s-1.5-.6-1.5-1.4.6-1.5 1.5-1.5c.8 0 1.4.6 1.4 1.5z"/><path d="m74.5 63.7c-1.1 0-2-.9-2-1.9 0-1.1.9-2 2-2s1.9.9 1.9 2c0 1-.8 1.9-1.9 1.9zm0-2.9c-.5 0-1 .4-1 1 0 .5.4.9 1 .9.5 0 .9-.4.9-.9 0-.6-.4-1-.9-1z"/></g><path d="m33.5 81.5h61v24h-61z" fill="#ffab00"/><g fill="#37474f"><path d="m94.5 107h-61c-.8 0-1.5-.7-1.5-1.5v-24c0-.8.7-1.5 1.5-1.5h61c.8 0 1.5.7 1.5 1.5v24c0 .8-.7 1.5-1.5 1.5zm-59.5-3h58v-21h-58z"/><g><path d="m55.6 93.7c0 .8-.6 1.4-1.4 1.4s-1.5-.6-1.5-1.4.7-1.5 1.5-1.5c.7 0 1.4.7 1.4 1.5z"/><path d="m54.1 95.6c-1.1 0-2-.9-2-1.9 0-1.1.9-2 2-2s1.9.9 1.9 2c.1 1.1-.8 1.9-1.9 1.9zm0-2.9c-.5 0-1 .4-1 1 0 .5.4.9 1 .9.5 0 .9-.4.9-.9.1-.6-.3-1-.9-1zm11.7 1c0 .8-.7 1.4-1.5 1.4s-1.5-.6-1.5-1.4.7-1.5 1.5-1.5 1.5.7 1.5 1.5z"/><path d="m64.3 95.6c-1.1 0-2-.9-2-1.9 0-1.1.9-2 2-2s2 .9 2 2-.9 1.9-2 1.9zm0-2.9c-.5 0-1 .4-1 1 0 .5.4.9 1 .9s1-.4 1-.9-.5-1-1-1z"/><path d="m75.9 93.7c0 .8-.6 1.4-1.4 1.4s-1.5-.6-1.5-1.4.6-1.5 1.5-1.5c.8 0 1.4.7 1.4 1.5z"/><path d="m74.5 95.6c-1.1 0-2-.9-2-1.9 0-1.1.9-2 2-2s1.9.9 1.9 2-.8 1.9-1.9 1.9zm0-2.9c-.5 0-1 .4-1 1 0 .5.4.9 1 .9.5 0 .9-.4.9-.9 0-.6-.4-1-.9-1z"/></g></g></svg>

<?xml version="1.0" encoding="utf-8"?>
<!-- Generator: Adobe Illustrator 16.0.0, SVG Export Plug-In . SVG Version: 6.00 Build 0)  -->
<!DOCTYPE svg PUBLIC "-//W3C//DTD SVG 1.1//EN" "http://www.w3.org/Graphics/SVG/1.1/DTD/svg11.dtd">
<svg version="1.1" id="Layer_1" xmlns="http://www.w3.org/2000/svg" xmlns:xlink="http://www.w3.org/1999/xlink" x="0px" y="0px"
	 width="128px" height="128px" viewBox="0 0 128 128" enable-background="new 0 0 128 128" xml:space="preserve">
<g>
	<g>
		<g>
			<rect x="19.5" y="98.5" fill="#78909C" width="14" height="25"/>
			<path fill="#37474F" d="M35,125H18V97h17V125z M21,122h11v-22H21V122z"/>
		</g>
		<g>
			<rect x="95.5" y="98.5" fill="#78909C" width="13" height="25"/>
			<path fill="#37474F" d="M110,125H94V97h16V125z M97,122h10v-22H97V122z"/>
		</g>
	</g>
	<g>
		<rect x="13.5" y="5.5" fill="#FFFFFF" width="101" height="110"/>
		<path fill="#37474F" d="M116,117H12V4h104V117z M15,114h98V7H15V114z"/>
	</g>
	<g>
		<g>
			<rect x="33.5" y="17.5" fill="#FFAB00" width="61" height="24"/>
			<path fill="#37474F" d="M94.5,43h-61c-0.8,0-1.5-0.7-1.5-1.5v-24c0-0.8,0.7-1.5,1.5-1.5h61c0.8,0,1.5,0.7,1.5,1.5v24
				C96,42.3,95.3,43,94.5,43z M35,40h58V19H35V40z"/>
		</g>
		<g>
			<g>
				<path fill="#37474F" d="M55.6,29.8c0,0.8-0.6,1.4-1.4,1.4c-0.8,0-1.5-0.6-1.5-1.4c0-0.8,0.7-1.5,1.5-1.5
					C54.9,28.3,55.6,29,55.6,29.8z"/>
				<path fill="#37474F" d="M54.1,31.7c-1.1,0-2-0.9-2-1.9c0-1.1,0.9-2,2-2c1.1,0,1.9,0.9,1.9,2C56.1,30.9,55.2,31.7,54.1,31.7z
					 M54.1,28.8c-0.6,0-1,0.4-1,1c0,0.5,0.4,0.9,1,0.9c0.5,0,0.9-0.4,0.9-0.9C55.1,29.3,54.7,28.8,54.1,28.8z"/>
			</g>
			<g>
				<path fill="#37474F" d="M65.8,29.8c0,0.8-0.7,1.4-1.5,1.4c-0.8,0-1.5-0.6-1.5-1.4c0-0.8,0.7-1.5,1.5-1.5
					C65.1,28.3,65.8,29,65.8,29.8z"/>
				<path fill="#37474F" d="M64.3,31.7c-1.1,0-2-0.9-2-1.9c0-1.1,0.9-2,2-2s2,0.9,2,2C66.3,30.9,65.4,31.7,64.3,31.7z M64.3,28.8
					c-0.5,0-1,0.4-1,1c0,0.5,0.4,0.9,1,0.9s1-0.4,1-0.9C65.3,29.3,64.8,28.8,64.3,28.8z"/>
			</g>
			<g>
				<path fill="#37474F" d="M75.9,29.8c0,0.8-0.6,1.4-1.4,1.4c-0.8,0-1.5-0.6-1.5-1.4c0-0.8,0.6-1.5,1.5-1.5
					C75.3,28.3,75.9,29,75.9,29.8z"/>
				<path fill="#37474F" d="M74.5,31.7c-1.1,0-2-0.9-2-1.9c0-1.1,0.9-2,2-2c1.1,0,1.9,0.9,1.9,2C76.4,30.9,75.6,31.7,74.5,31.7z
					 M74.5,28.8c-0.5,0-1,0.4-1,1c0,0.5,0.4,0.9,1,0.9c0.5,0,0.9-0.4,0.9-0.9C75.4,29.3,75,28.8,74.5,28.8z"/>
			</g>
		</g>
	</g>
	<g>
		<g>
			<rect x="33.5" y="49.5" fill="#FFAB00" width="61" height="24"/>
			<path fill="#37474F" d="M94.5,75h-61c-0.8,0-1.5-0.7-1.5-1.5v-24c0-0.8,0.7-1.5,1.5-1.5h61c0.8,0,1.5,0.7,1.5,1.5v24
				C96,74.3,95.3,75,94.5,75z M35,72h58V51H35V72z"/>
		</g>
		<g>
			<g>
				<path fill="#37474F" d="M55.6,61.8c0,0.8-0.6,1.4-1.4,1.4c-0.8,0-1.5-0.6-1.5-1.4c0-0.8,0.7-1.5,1.5-1.5
					C54.9,60.3,55.6,60.9,55.6,61.8z"/>
				<path fill="#37474F" d="M54.1,63.7c-1.1,0-2-0.9-2-1.9c0-1.1,0.9-2,2-2c1.1,0,1.9,0.9,1.9,2C56.1,62.8,55.2,63.7,54.1,63.7z
					 M54.1,60.8c-0.6,0-1,0.4-1,1c0,0.5,0.4,0.9,1,0.9c0.5,0,0.9-0.4,0.9-0.9C55.1,61.2,54.7,60.8,54.1,60.8z"/>
			</g>
			<g>
				<path fill="#37474F" d="M65.8,61.8c0,0.8-0.7,1.4-1.5,1.4c-0.8,0-1.5-0.6-1.5-1.4c0-0.8,0.7-1.5,1.5-1.5
					C65.1,60.3,65.8,60.9,65.8,61.8z"/>
				<path fill="#37474F" d="M64.3,63.7c-1.1,0-2-0.9-2-1.9c0-1.1,0.9-2,2-2s2,0.9,2,2C66.3,62.8,65.4,63.7,64.3,63.7z M64.3,60.8
					c-0.5,0-1,0.4-1,1c0,0.5,0.4,0.9,1,0.9s1-0.4,1-0.9C65.3,61.2,64.8,60.8,64.3,60.8z"/>
			</g>
			<g>
				<path fill="#37474F" d="M75.9,61.8c0,0.8-0.6,1.4-1.4,1.4c-0.8,0-1.5-0.6-1.5-1.4c0-0.8,0.6-1.5,1.5-1.5
					C75.3,60.3,75.9,60.9,75.9,61.8z"/>
				<path fill="#37474F" d="M74.5,63.7c-1.1,0-2-0.9-2-1.9c0-1.1,0.9-2,2-2c1.1,0,1.9,0.9,1.9,2C76.4,62.8,75.6,63.7,74.5,63.7z
					 M74.5,60.8c-0.5,0-1,0.4-1,1c0,0.5,0.4,0.9,1,0.9c0.5,0,0.9-0.4,0.9-0.9C75.4,61.2,75,60.8,74.5,60.8z"/>
			</g>
		</g>
	</g>
	<g>
		<g>
			<rect x="33.5" y="81.5" fill="#FFAB00" width="61" height="24"/>
			<path fill="#37474F" d="M94.5,107h-61c-0.8,0-1.5-0.7-1.5-1.5v-24c0-0.8,0.7-1.5,1.5-1.5h61c0.8,0,1.5,0.7,1.5,1.5v24
				C96,106.3,95.3,107,94.5,107z M35,104h58V83H35V104z"/>
		</g>
		<g>
			<g>
				<path fill="#37474F" d="M55.6,93.7c0,0.8-0.6,1.4-1.4,1.4c-0.8,0-1.5-0.6-1.5-1.4c0-0.8,0.7-1.5,1.5-1.5
					C54.9,92.2,55.6,92.9,55.6,93.7z"/>
				<path fill="#37474F" d="M54.1,95.6c-1.1,0-2-0.9-2-1.9c0-1.1,0.9-2,2-2c1.1,0,1.9,0.9,1.9,2C56.1,94.8,55.2,95.6,54.1,95.6z
					 M54.1,92.7c-0.5,0-1,0.4-1,1c0,0.5,0.4,0.9,1,0.9c0.5,0,0.9-0.4,0.9-0.9C55.1,93.1,54.7,92.7,54.1,92.7z"/>
			</g>
			<g>
				<path fill="#37474F" d="M65.8,93.7c0,0.8-0.7,1.4-1.5,1.4c-0.8,0-1.5-0.6-1.5-1.4c0-0.8,0.7-1.5,1.5-1.5
					C65.1,92.2,65.8,92.9,65.8,93.7z"/>
				<path fill="#37474F" d="M64.3,95.6c-1.1,0-2-0.9-2-1.9c0-1.1,0.9-2,2-2s2,0.9,2,2C66.3,94.8,65.4,95.6,64.3,95.6z M64.3,92.7
					c-0.5,0-1,0.4-1,1c0,0.5,0.4,0.9,1,0.9s1-0.4,1-0.9C65.3,93.2,64.8,92.7,64.3,92.7z"/>
			</g>
			<g>
				<path fill="#37474F" d="M75.9,93.7c0,0.8-0.6,1.4-1.4,1.4c-0.8,0-1.5-0.6-1.5-1.4c0-0.8,0.6-1.5,1.5-1.5
					C75.3,92.2,75.9,92.9,75.9,93.7z"/>
				<path fill="#37474F" d="M74.5,95.6c-1.1,0-2-0.9-2-1.9c0-1.1,0.9-2,2-2c1.1,0,1.9,0.9,1.9,2C76.4,94.8,75.6,95.6,74.5,95.6z
					 M74.5,92.7c-0.5,0-1,0.4-1,1c0,0.5,0.4,0.9,1,0.9c0.5,0,0.9-0.4,0.9-0.9C75.4,93.1,75,92.7,74.5,92.7z"/>
			</g>
		</g>
	</g>
</g>
</svg>
